X:1
T:Title
%%score { ( 1 3 ) | ( 2 4 ) }
L:1/8
Q:1/4=116
M:3/4
K:Bb
V:1 treble nm="Grand Piano"
V:3 treble 
V:2 bass 
V:4 bass 
V:1
 [DF]3 [DF] [DF]2 | F2 G2 A2 | [DB]4 [EB]2 | [DB]6 | G3 G G2 | B4 G2 | [DF]4 [FB]2 | [Fc]6 | %8
w: Homer~A.~Hammontree * *||||||||
 [DF]3 [DF] [DF]2 | F2 G2 A2 | [DB]4 [EB]2 | [DB]6 | [Fd]3 [Ec] [DB]2 | G4 F2 | B4 c2 | [DB]6 | %16
w: ||||||||
[M:1/4] [DB]2 |[M:3/4] B3 B B2 | c2 B2 G2 | [DF]6 | F2 C2 D2 | E2 A3 G | [DF]6 | G3 G G2 | %24
w: ||||||||
 [GB]2 [FA]2 [EG]2 | [DF]2 [FB]2 c2 | d6 | [Fd]2 [Fc]2 [FB]2 | %28
w: ||||
[M:15/16] [EF]->[EF][Ec]- [Ec]3- [Ec]/[DB] |[M:3/4] B6- | B4 z2 |] %31
w: |||
V:2
 [B,,B,]3 [B,,B,] [B,,B,]2 | [F,A,E]2 [F,B,E]2 [F,CE]2 | [B,,B,]4 [B,,G,]2 | F,4 z2 | %4
 [E,B,E]3 [E,B,E] [E,B,E]2 | [E,G,E]4 [E,B,E]2 | [B,,B,]4 [D,B,]2 | [F,A,]6 | %8
 [B,,B,]3 [B,,B,] [B,,B,]2 | [F,E]2- [F,B,E]2 [F,CE]2 | [B,,B,]4 [B,,G,]2 | [B,,F,]6 | %12
 [B,,B,]3 [B,,B,] [B,,B,]2 | [E,B,E]4 [F,A,E]2 | [F,B,D]4 [F,A,E]2 | [B,,B,]6 |[M:1/4] [B,,B,]2 | %17
[M:3/4] [E,G,E]3 [E,G,E] [E,G,E]2 | [E,G,E]2 [E,G,E]2 [E,B,E]2 | [B,,B,]6 | %20
 [F,A,C]2 [F,A,]2 [F,B,]2 | [F,A,C]2 [F,CE]3 [F,A,E] | [B,,B,]6 | [E,B,E]3 [E,B,E] [E,B,E]2 | %24
 [E,E]2 [E,E]2 [E,B,]2 | [B,,B,]2 [D,B,]2[K:treble] [F,A,F]2 | [B,F]6 | [B,,B,]2 [C,A,]2 [D,B,]2 | %28
[M:15/16] [F,A,]->[F,A,][F,A,]- [F,A,]3- [F,A,]/[B,,B,] |[M:3/4] F,4 z2 | [B,,F,]4 z2 |] %31
V:3
 x6 | x6 | x6 | z2 z2 B,2 | x6 | x6 | x6 | x6 | x6 | x6 | x6 | x6 | x6 | x6 | x6 | x6 |[M:1/4] x2 | %17
[M:3/4] x6 | x6 | x6 | x6 | x6 | x6 | x6 | x6 | x6 | x6 | x6 |[M:15/16] x15/2 |[M:3/4] D4 E2 | %30
 D4 z2 |] %31
V:4
 x6 | x6 | x6 | B,,6 | x6 | x6 | x6 | x6 | x6 | A,2 z2 z2 | x6 | x6 | x6 | x6 | x6 | x6 | %16
[M:1/4] x2 |[M:3/4] x6 | x6 | x6 | x6 | x6 | x6 | x6 | x6 | x4[K:treble] x2 | x6 | x6 | %28
[M:15/16] x15/2 |[M:3/4] B,,4- [B,,G,]2 | x6 |] %31

